X: 27863
T: Moul Head, The
R: reel
M: 4/4
K: Gmajor
BA|GEED B,DDE|GDGA BddB|ceec Bdge|dBBG A2BA|
GEED B,DDE|GDGA BddB|ceec Bdge|dBAB G2:|
|:Bd|eBBA Bdge|dBAB GEEe|dBBA Bdge|dBBG A2|
[1 Bd|eBBA Bdge|dBAB GEEG|DEGA Bdge|dBAB G2:|
[2 BA|GEED B,DDE|GDGA BddB|ceec Bdge|dBAB G2||

